!!!OTL: 211. Fruehlingsliebe.
!!!COM: Volksweise
!!!ARE: Europa, Mitteleuropa, Deutschland
!!!SCT: B0211
!!!TXL: @@DE
!!!YEM: Copyright 1995, estate of Helmut Schaffrath.
**kern	**text
*ICvox	*
*Ivox	*
*celfG2	*
*M3/4	*
*k[]	*
*C:	*
!LO:TX:a:t=Etwas bewegt.	!
{8g	Wenn
8cc	der
=1	=1
8.b/	Früh-
16a	-ling
8g	kommt
8a	und
8g	von
8f	den
=2	=2
8e	Ber-
8f	-gen
4g}	ſchaut,
{8g	wenn
8cc	der
=3	=3
8.b/	Schnee
16a	im
8g	Thal
8a	und
8g	auf
8f	den
=4	=4
8e	Hü-
8f	-geln
4g}	thaut,
{8g	wenn
8g	die
=5	=5
8.a	Bäch-
16f	-lein
8f	quel-
8f	-len
8a	und
8a	die
=6	=6
8.b/	Knos-
16g#	-pen
8g#	ſchwellen,
8g#}	.
{8b	wird
8b	die
=7	=7
8.cc	Sehn-
16a	-ſucht
8a	mir
8b	im
8cc	Her-
8dd	-ʒen
=8	=8
2ee}	laut,
{8.ee	wird
16ee	die
=9	=9
8.ee	Sehnſucht
16dd	.
8dd	mir
8a	im
8b/	Her-
8g	-ʒen
=10	=10
4cc	laut.
4r}	.
==	==
!!!AGN: Jahreszeiten - Lied, Fruehling
!!!GTL: Jahreszeitenlieder
!!!ONB: ESAC (Essen Associative Code) Database: BOEHME
!!!AMT: simple triple
!!!AIN: vox
!!!EED: Helmut Schaffrath
!!!EEV: 1.0
!!@@COMMENT:"Gedicht von Joh. Georg Keil. Ʒuerſt in: "Lyra und Harfe", Liederproben von J. G. Keil.
!!Leipʒig, Fr. Fleiſcher, 1834. S. 136. - Die älteſte und ſchönſte Mel. daʒu von M. Haupt-
!!mann (ſ. Finks Hausſchatʒ" Nr. 988). Eine andere von L. Erk, "Blätter und Blüten" 1894.
!!Nr. 9. - Jch gebe die ʒiemlich verbreitete Volsweiſe.
!!Hieran ſchließe ich ein Trallerſtückchen aus Weſtfalen, das eine ſchöne Mel. und den Text aus
!!Keils Gedichte ʒuſammengerafft hat."
!!@@END:
!!!Text: Joh. Georg Keil
!!!URL-scan: https://archive.org/details/BoehmeVtLieder1895/page/n195/mode/2up
!!!ENC: Anna Maria Matuszewska
!!!EEV: 2024/24/06
*-	*-
